X: 19
T: Kesh Jig
I: Kesh Jig	J-18	G	jig	Set 15
I: Kincora Jig	J-18	G	jig	Set 15
%%musicspace	0.0cm
M: 6/8
R: jig
K: G
D| "G"G3 GAB| "D"ABA ABd| "G"edd gdd| edB "D"dBA|
   "G"G3 GAB| "D"ABA ABd| "G"edd gdB| "D"AGF "G"G2 :|
|:A| "G"B3 dBd| "C"ege "G"dBG| BAB dBG| "Am"ABA AGA|
   "G"B3 dBd| "C"ege "G"dBd| "C"g3 "D"aga| "G"bgg g2 :|
%%text Roaring Jelly  J-18

